; generated by PrusaSlicer 2.9.3 on 2025-10-27 at 16:38:38 UTC


;
;

;
;

;
;

;
;

;
;
; 

; external perimeters extrusion width = 0.45mm
; perimeters extrusion width = 0.45mm
; infill extrusion width = 0.45mm
; solid infill extrusion width = 0.45mm
; top infill extrusion width = 0.42mm
; support material extrusion width = 0.36mm
; first layer extrusion width = 0.50mm

; external perimeters extrusion width = 0.45mm
; perimeters extrusion width = 0.45mm
; infill extrusion width = 0.45mm
; solid infill extrusion width = 0.45mm
; top infill extrusion width = 0.42mm
; support material extrusion width = 0.36mm
; first layer extrusion width = 0.50mm

; external perimeters extrusion width = 0.45mm
; perimeters extrusion width = 0.45mm
; infill extrusion width = 0.45mm
; solid infill extrusion width = 0.45mm
; top infill extrusion width = 0.42mm
; support material extrusion width = 0.36mm
; first layer extrusion width = 0.50mm

; external perimeters extrusion width = 0.45mm
; perimeters extrusion width = 0.45mm
; infill extrusion width = 0.45mm
; solid infill extrusion width = 0.45mm
; top infill extrusion width = 0.42mm
; support material extrusion width = 0.36mm
; first layer extrusion width = 0.50mm

; external perimeters extrusion width = 0.45mm
; perimeters extrusion width = 0.45mm
; infill extrusion width = 0.45mm
; solid infill extrusion width = 0.45mm
; top infill extrusion width = 0.42mm
; support material extrusion width = 0.36mm
; first layer extrusion width = 0.50mm

M73 P0 R26
M73 Q0 S28
M201 X4000 Y4000 Z200 E2500 ; sets maximum accelerations, mm/sec^2
M203 X300 Y300 Z12 E120 ; sets maximum feedrates, mm / sec
M204 P4000 R1250 T4000 ; sets acceleration (P, T) and retract acceleration (R), mm/sec^2
M205 X8.00 Y8.00 Z2.00 E5.00 ; sets the jerk limits, mm/sec
M205 S0 T0 ; sets the minimum extruding and travel feed rate, mm/sec

M486 S0
M486 ACabel-Holder.stl
M486 S-1
M486 S1
M486 ACabel-Holder.stl
M486 S-1
M486 S2
M486 ACabel-Holder.stl
M486 S-1
M486 S3
M486 ACabel-Holder.stl
M486 S-1
M486 S4
M486 ACabel-Holder.stl
M486 S-1

;TYPE:Custom
M17 ; enable steppers
M862.1 P0.4 A0 F0 ; nozzle check
M862.3 P "MK3.5" ; printer model check
M862.5 P2 ; g-code level check
M862.6 P"Input shaper" ; FW feature check
M115 U6.2.2+8853

M555 X76.9016 Y53.3557 W95.7706 H101.018

G90 ; use absolute coordinates
M83 ; extruder relative mode

M140 S60 ; set bed temp
M104 T0 S170 ; set extruder temp for bed leveling
M109 T0 R170 ; wait for temp
M190 S60 ; wait for bed temp

G28 ; home all

G29 P1 ; invalidate mbl & probe print area
G29 P1 X23 Y5 W80 H20 C ; probe near purge place
G29 P3.2 ; interpolate mbl probes
G29 P3.13 ; extrapolate mbl outside probe area
G29 A ; activate mbl

; prepare for purge
M104 S230
G0 X0 Y-4 Z15 F4800 ; move away and ready for the purge
M109 S230

; Extrude purge line

G92 E0 ; reset extruder position
G0 E7 X15 Z0.2 F500 ; purge
G0 X25 E4 F500 ; purge
G0 X35 E4 F650 ; purge
G0 X45 E4 F800 ; purge
G0 X48 Z0.05 F8000 ; wipe, move close to the bed
G0 X51 Z0.2 F8000 ; wipe, move quickly away from the bed

G92 E0
M221 S100 ; reset flow to 100%
G21 ; set units to millimeters
G90 ; use absolute coordinates
M83 ; use relative distances for extrusion





M572 S0.035 ; Filament gcode
M107
;LAYER_CHANGE
;Z:0.2
;HEIGHT:0.2
G1 E-.8 F2100
G1 Z.4 F720
M486 S4
G1 X92.459 Y115.601 F18000
G1 Z.2 F720
G1 E.8 F2100
M204 P500
;TYPE:Perimeter
;WIDTH:0.499999
G1 F1800
G1 X92.08 Y115.656 E.01456
G1 X81.715 Y115.656 E.39394
G3 X79.529 Y114.901 I.247 J-4.259 E.08901
G3 X78.691 Y114.103 I2.955 J-3.941 E.04408
G1 X78.262 Y113.435 E.03017
G1 X78.039 Y112.914 E.02154
G3 X77.814 Y111.763 I7.702 J-2.1 E.04461
G1 X77.814 Y101.382 E.39454
G3 X78.265 Y99.694 I4.415 J.275 E.06684
G1 X78.565 Y99.202 E.0219
G1 X79.079 Y98.608 E.02985
G1 X79.69 Y98.128 E.02953
G1 X80.389 Y97.768 E.02988
G3 X81.363 Y97.533 I1.347 J3.448 E.0382
G1 X81.912 Y97.475 E.02098
G1 X91.887 Y97.476 E.37911
G1 X92.683 Y97.553 E.03039
G3 X93.769 Y97.929 I-1.046 J4.779 E.04378
G1 X94.43 Y98.354 E.02987
G1 X94.998 Y98.896 E.02984
G1 X95.338 Y99.35 E.02156
G1 X95.702 Y100.056 E.03019
G3 X95.994 Y101.688 I-4.211 J1.596 E.06337
G1 X95.989 Y111.755 E.38261
G3 X95.538 Y113.443 I-4.415 J-.276 E.06684
G1 X95.238 Y113.934 E.02187
G1 X94.724 Y114.528 E.02985
G1 X94.113 Y115.009 E.02955
G1 X93.414 Y115.369 E.02988
G1 X92.874 Y115.541 E.02154
G1 X92.518 Y115.593 E.01367
M204 P2500
M204 T4000
G1 X92.535 Y116.052 F18000
M204 P500
;TYPE:External perimeter
G1 F1800
G1 X92.113 Y116.113 E.01621
G1 X81.688 Y116.113 E.39622
G1 X81.041 Y116.035 E.02477
G1 X80.414 Y115.867 E.02467
G1 X79.817 Y115.612 E.02467
G1 X79.263 Y115.274 E.02466
G1 X78.762 Y114.861 E.02468
G1 X78.328 Y114.383 E.02454
G1 X77.857 Y113.65 E.03311
G1 X77.604 Y113.059 E.02443
G3 X77.357 Y111.785 I8.54 J-2.313 E.04937
G1 X77.357 Y101.354 E.39644
G1 X77.434 Y100.707 E.02476
G1 X77.602 Y100.08 E.02467
G1 X77.858 Y99.484 E.02465
G1 X78.194 Y98.932 E.02456
G1 X78.762 Y98.276 E.03298
G1 X79.442 Y97.741 E.03288
G1 X80.214 Y97.344 E.03299
G1 X80.826 Y97.148 E.02442
G3 X81.907 Y97.018 I2.139 J13.25 E.04139
G1 X91.909 Y97.019 E.38014
G1 X92.765 Y97.102 E.03269
G1 X93.39 Y97.269 E.02459
G1 X93.984 Y97.524 E.02457
G1 X94.713 Y97.993 E.03295
G1 X95.342 Y98.591 E.03299
G1 X95.727 Y99.107 E.02447
G1 X96.126 Y99.88 E.03306
G1 X96.323 Y100.495 E.02454
G3 X96.451 Y101.688 I-5.558 J1.204 E.04569
G1 X96.446 Y111.782 E.38364
G1 X96.369 Y112.429 E.02476
G1 X96.201 Y113.056 E.02467
G1 X95.945 Y113.653 E.02469
G1 X95.609 Y114.205 E.02456
G1 X95.04 Y114.861 E.033
G1 X94.361 Y115.395 E.03283
G1 X93.59 Y115.793 E.03298
G1 X92.977 Y115.988 E.02445
G1 X92.594 Y116.044 E.01471
M204 P2500
;WIPE_START
G1 F14400
G1 X92.535 Y116.052 E-.00825
G1 X92.113 Y116.113 E-.05907
G1 X86.824 Y116.113 E-.73268
;WIPE_END
G1 Z.4 F720
G1 X93.613 Y98.061 F18000
G1 Z.2 F720
G1 E.8 F2100
M204 P500
;TYPE:Solid infill
;WIDTH:0.501065
G1 F1800
G1 X94.708 Y99.156 E.05899
G1 X95.008 Y99.557 E.01908
G1 X95.342 Y100.205 E.02777
G1 X95.451 Y100.547 E.01367
G1 X92.924 Y98.02 E.13614
G2 X92.148 Y97.891 I-.868 J2.84 E.03006
G1 X95.594 Y101.338 E.18568
G1 X95.606 Y101.998 E.02515
G1 X91.473 Y97.864 E.22269
G1 X90.825 Y97.864 E.02469
G1 X95.605 Y102.645 E.25755
G1 X95.605 Y103.293 E.02469
G1 X90.177 Y97.864 E.29246
G1 X89.529 Y97.864 E.02469
G1 X95.605 Y103.94 E.32734
G1 X95.604 Y104.588 E.02469
G1 X88.881 Y97.864 E.36222
G1 X88.233 Y97.864 E.02469
G1 X95.604 Y105.235 E.39711
G1 X95.604 Y105.883 E.02469
G1 X87.585 Y97.864 E.43202
G1 X86.937 Y97.864 E.02469
G1 X95.603 Y106.531 E.4669
G1 X95.603 Y107.178 E.02465
G1 X86.289 Y97.864 E.50179
G1 X85.641 Y97.864 E.02469
M73 P1 R26
G1 X95.603 Y107.826 E.5367
G1 X95.602 Y108.473 E.02465
M73 Q1 S28
G1 X84.993 Y97.864 E.57155
G1 X84.345 Y97.864 E.02469
G1 X95.602 Y109.121 E.60646
G1 X95.602 Y109.768 E.02465
G1 X83.697 Y97.864 E.64135
G1 X83.049 Y97.864 E.02469
G1 X95.601 Y110.416 E.67623
G1 X95.601 Y111.064 E.02469
G1 X82.401 Y97.864 E.71114
G1 X81.758 Y97.868 E.0245
G1 X95.601 Y111.711 E.74578
G1 X95.531 Y112.289 E.02218
G1 X81.191 Y97.95 E.77253
G2 X80.677 Y98.083 I.271 J2.097 E.02028
G1 X95.391 Y112.798 E.79273
G1 X95.197 Y113.251 E.01877
G1 X80.232 Y98.286 E.80623
G2 X79.819 Y98.521 I.801 J1.886 E.01814
G1 X94.953 Y113.656 E.81536
G3 X94.659 Y114.009 I-2.925 J-2.133 E.01751
G1 X79.456 Y98.806 E.81905
G2 X79.137 Y99.135 I1.027 J1.317 E.01751
G1 X94.339 Y114.337 E.819
G1 X93.976 Y114.622 E.01758
G1 X78.844 Y99.49 E.81523
G1 X78.601 Y99.895 E.01799
G1 X93.562 Y114.856 E.80601
G3 X93.115 Y115.057 I-1.027 J-1.687 E.01872
G1 X78.407 Y100.349 E.79238
G1 X78.269 Y100.859 E.02013
G1 X92.599 Y115.189 E.77202
G1 X92.03 Y115.267 E.02188
G1 X78.203 Y101.44 E.74492
G1 X78.203 Y102.088 E.02469
G1 X91.382 Y115.267 E.71001
G1 X90.734 Y115.267 E.02469
G1 X78.203 Y102.736 E.6751
G1 X78.203 Y103.384 E.02469
G1 X90.086 Y115.267 E.64019
G1 X89.438 Y115.267 E.02469
M73 Q1 S27
G1 X78.203 Y104.032 E.60528
G1 X78.203 Y104.68 E.02469
G1 X88.79 Y115.267 E.57037
G1 X88.142 Y115.267 E.02469
M73 P2 R26
G1 X78.203 Y105.328 E.53546
G1 X78.203 Y105.976 E.02469
G1 X87.494 Y115.267 E.50055
G1 X86.846 Y115.267 E.02469
G1 X78.203 Y106.624 E.46564
G1 X78.203 Y107.271 E.02465
M73 Q2 S27
G1 X86.198 Y115.267 E.43075
G1 X85.55 Y115.267 E.02469
G1 X78.203 Y107.919 E.39584
G1 X78.203 Y108.567 E.02469
G1 X84.902 Y115.267 E.36093
G1 X84.255 Y115.267 E.02465
G1 X78.203 Y109.215 E.32605
G1 X78.203 Y109.863 E.02469
G1 X83.607 Y115.267 E.29114
G1 X82.959 Y115.267 E.02469
G1 X78.203 Y110.511 E.25623
G1 X78.203 Y111.159 E.02469
G1 X82.311 Y115.267 E.22132
G3 X81.653 Y115.257 I-.222 J-6.904 E.02508
G1 X78.209 Y111.813 E.18554
G2 X78.367 Y112.619 I3.881 J-.341 E.03135
G1 X81.15 Y115.402 E.14993
M204 P2500
;WIPE_START
G1 F14400
G1 X78.367 Y112.619 E-.54527
G3 X78.209 Y111.813 I3.723 J-1.148 E-.114
G1 X78.927 Y112.531 E-.14073
;WIPE_END
G1 Z.4 F720
M486 S-1
M486 S0
G1 X128.699 Y76.389 F18000
G1 Z.2 F720
G1 E.8 F2100
M204 P500
;TYPE:Perimeter
;WIDTH:0.499999
G1 F1800
G1 X128.32 Y76.443 E.01455
G1 X117.955 Y76.443 E.39394
G3 X115.769 Y75.688 I.247 J-4.258 E.08901
G3 X114.932 Y74.891 I2.956 J-3.941 E.04403
G1 X114.502 Y74.223 E.03019
G1 X114.279 Y73.701 E.02157
G3 X114.055 Y72.55 I7.703 J-2.1 E.04461
G1 X114.055 Y62.169 E.39454
G3 X114.506 Y60.481 I4.414 J.276 E.06684
G1 X114.805 Y59.99 E.02185
G1 X115.32 Y59.396 E.02988
G1 X115.931 Y58.915 E.02955
G1 X116.63 Y58.555 E.02988
G3 X117.603 Y58.32 I1.347 J3.448 E.03816
G1 X118.153 Y58.263 E.02102
G1 X128.127 Y58.263 E.37907
G1 X128.924 Y58.341 E.03044
G3 X130.009 Y58.716 I-1.047 J4.779 E.04373
G1 X130.67 Y59.141 E.02987
G1 X131.239 Y59.683 E.02987
G1 X131.579 Y60.137 E.02156
G1 X131.943 Y60.843 E.03019
G3 X132.235 Y62.476 I-4.212 J1.597 E.06341
G1 X132.229 Y72.542 E.38257
G3 X131.778 Y74.23 I-4.415 J-.275 E.06684
G1 X131.479 Y74.722 E.02188
G1 X130.964 Y75.316 E.02988
G1 X130.353 Y75.796 E.02953
G1 X129.655 Y76.156 E.02985
G1 X129.115 Y76.329 E.02155
G1 X128.759 Y76.38 E.01367
M204 P2500
G1 X128.775 Y76.839 F18000
M204 P500
;TYPE:External perimeter
G1 F1800
G1 X128.353 Y76.9 E.01621
G1 X117.928 Y76.9 E.39622
G1 X117.281 Y76.823 E.02476
G1 X116.654 Y76.655 E.02467
G1 X116.057 Y76.399 E.02469
G1 X115.503 Y76.062 E.02465
G1 X115.003 Y75.648 E.02467
G1 X114.568 Y75.17 E.02456
G1 X114.097 Y74.438 E.03308
G1 X113.844 Y73.846 E.02447
G3 X113.598 Y72.572 I8.541 J-2.313 E.04936
G1 X113.598 Y62.142 E.39641
G1 X113.675 Y61.495 E.02476
G1 X113.843 Y60.868 E.02467
G1 X114.098 Y60.271 E.02467
G1 X114.435 Y59.719 E.02458
G1 X115.003 Y59.064 E.03295
G1 X115.683 Y58.529 E.03288
G1 X116.454 Y58.131 E.03298
G1 X117.067 Y57.935 E.02446
G3 X118.147 Y57.806 I2.139 J13.25 E.04135
G1 X128.149 Y57.806 E.38014
G1 X129.006 Y57.889 E.03272
G1 X129.63 Y58.057 E.02456
G1 X130.224 Y58.311 E.02455
G1 X130.954 Y58.78 E.03298
G1 X131.582 Y59.379 E.03298
G1 X131.968 Y59.894 E.02446
G1 X132.366 Y60.667 E.03304
G1 X132.563 Y61.283 E.02458
G3 X132.692 Y62.476 I-5.558 J1.204 E.04569
G1 X132.687 Y72.569 E.3836
G1 X132.609 Y73.216 E.02477
G1 X132.441 Y73.844 E.02471
G1 X132.186 Y74.44 E.02464
G1 X131.849 Y74.992 E.02458
G1 X131.281 Y75.648 E.03298
G1 X130.601 Y76.182 E.03286
G1 X129.83 Y76.58 E.03298
G1 X129.217 Y76.776 E.02446
G1 X128.835 Y76.831 E.01467
M204 P2500
;WIPE_START
G1 F14400
G1 X128.775 Y76.839 E-.00839
G1 X128.353 Y76.9 E-.05907
G1 X123.066 Y76.9 E-.73254
;WIPE_END
G1 Z.4 F720
G1 X129.853 Y58.848 F18000
G1 Z.2 F720
G1 E.8 F2100
M204 P500
;TYPE:Solid infill
;WIDTH:0.501065
G1 F1800
G1 X130.948 Y59.943 E.05899
G1 X131.248 Y60.344 E.01908
G1 X131.582 Y60.992 E.02777
G1 X131.692 Y61.335 E.01372
G1 X129.164 Y58.807 E.13619
G2 X128.388 Y58.679 I-.868 J2.841 E.03005
G1 X131.834 Y62.125 E.18565
G1 X131.846 Y62.785 E.02515
G1 X127.713 Y58.652 E.22266
G1 X127.065 Y58.652 E.02469
G1 X131.846 Y63.433 E.25757
G1 X131.845 Y64.08 E.02465
G1 X126.417 Y58.652 E.29243
G1 X125.769 Y58.652 E.02469
G1 X131.845 Y64.728 E.32734
G1 X131.845 Y65.375 E.02465
G1 X125.121 Y58.652 E.36222
G1 X124.473 Y58.652 E.02469
G1 X131.844 Y66.023 E.39711
G1 X131.844 Y66.67 E.02465
G1 X123.825 Y58.652 E.43199
G1 X123.177 Y58.652 E.02469
G1 X131.844 Y67.318 E.4669
G1 X131.843 Y67.966 E.02469
G1 X122.529 Y58.652 E.50179
G1 X121.881 Y58.651 E.02469
G1 X131.843 Y68.613 E.5367
G1 X131.843 Y69.261 E.02469
G1 X121.233 Y58.651 E.57161
G1 X120.586 Y58.651 E.02465
G1 X131.842 Y69.908 E.60644
G1 X131.842 Y70.556 E.02469
G1 X119.938 Y58.651 E.64135
G1 X119.29 Y58.651 E.02469
M73 P3 R26
G1 X131.842 Y71.203 E.67623
G1 X131.841 Y71.851 E.02469
G1 X118.642 Y58.651 E.71111
G1 X117.998 Y58.656 E.02453
G1 X131.841 Y72.498 E.74576
G1 X131.771 Y73.077 E.02222
G1 X117.432 Y58.737 E.77253
G2 X116.918 Y58.871 I.27 J2.097 E.02029
M73 P3 R25
M73 Q3 S27
G1 X131.632 Y73.585 E.79271
G1 X131.438 Y74.039 E.01881
G1 X116.472 Y59.073 E.80628
G2 X116.059 Y59.309 I.801 J1.886 E.01816
G1 X131.194 Y74.443 E.81536
G3 X130.9 Y74.797 I-2.926 J-2.132 E.01754
G1 X115.697 Y59.594 E.81905
G2 X115.377 Y59.923 I1.027 J1.316 E.01754
G1 X130.579 Y75.124 E.81897
G1 X130.216 Y75.409 E.01758
G1 X115.085 Y60.278 E.81517
G1 X114.842 Y60.683 E.01799
G1 X129.802 Y75.643 E.80596
G3 X129.355 Y75.844 I-1.027 J-1.686 E.01872
G1 X114.648 Y61.136 E.79236
G1 X114.51 Y61.646 E.02013
G1 X128.839 Y75.976 E.77199
G1 X128.27 Y76.055 E.02188
G1 X114.443 Y62.228 E.74492
G1 X114.443 Y62.876 E.02469
G1 X127.622 Y76.055 E.71001
G1 X126.974 Y76.055 E.02469
G1 X114.443 Y63.524 E.6751
G1 X114.443 Y64.171 E.02465
G1 X126.326 Y76.055 E.64022
G1 X125.678 Y76.055 E.02469
G1 X114.443 Y64.819 E.60531
G1 X114.443 Y65.467 E.02469
G1 X125.03 Y76.055 E.57039
G1 X124.383 Y76.055 E.02465
G1 X114.443 Y66.115 E.53551
G1 X114.443 Y66.763 E.02469
G1 X123.735 Y76.055 E.5006
G1 X123.087 Y76.055 E.02469
G1 X114.443 Y67.411 E.46569
G1 X114.443 Y68.059 E.02469
G1 X122.439 Y76.055 E.43078
G1 X121.791 Y76.055 E.02469
G1 X114.443 Y68.707 E.39587
G1 X114.443 Y69.355 E.02469
M73 P4 R25
G1 X121.143 Y76.055 E.36096
G1 X120.495 Y76.055 E.02469
G1 X114.443 Y70.003 E.32605
G1 X114.443 Y70.651 E.02469
G1 X119.847 Y76.055 E.29114
G1 X119.199 Y76.055 E.02469
G1 X114.443 Y71.299 E.25623
G1 X114.443 Y71.946 E.02465
G1 X118.551 Y76.055 E.22134
G3 X117.893 Y76.044 I-.222 J-6.904 E.02508
G1 X114.45 Y72.601 E.18549
G2 X114.607 Y73.407 I3.88 J-.342 E.03134
G1 X117.391 Y76.19 E.14996
M204 P2500
;WIPE_START
G1 F14400
G1 X114.607 Y73.407 E-.54536
G3 X114.45 Y72.601 I3.724 J-1.144 E-.11397
G1 X115.168 Y73.319 E-.14067
;WIPE_END
G1 Z.4 F720
M486 S-1
M486 S2
G1 X130.557 Y114.033 F18000
G1 Z.2 F720
G1 E.8 F2100
M204 P500
;TYPE:Perimeter
;WIDTH:0.499999
G1 F1800
G1 X130.178 Y114.087 E.01455
G1 X119.813 Y114.087 E.39394
G3 X117.627 Y113.333 I.247 J-4.258 E.089
G3 X116.79 Y112.535 I2.955 J-3.942 E.04405
G1 X116.36 Y111.867 E.03019
G1 X116.137 Y111.346 E.02154
G3 X115.913 Y110.195 I7.703 J-2.101 E.04461
G1 X115.913 Y99.813 E.39458
G3 X116.364 Y98.125 I4.414 J.276 E.06684
M73 Q4 S27
G1 X116.663 Y97.634 E.02185
G1 X117.178 Y97.04 E.02988
G1 X117.789 Y96.56 E.02953
G1 X118.488 Y96.199 E.0299
G3 X119.461 Y95.964 I1.347 J3.449 E.03816
G1 X120.011 Y95.907 E.02102
G1 X129.985 Y95.908 E.37907
G1 X130.782 Y95.985 E.03043
G3 X131.867 Y96.36 I-1.047 J4.779 E.04373
G1 X132.528 Y96.785 E.02987
G1 X133.097 Y97.328 E.02989
G1 X133.437 Y97.782 E.02156
G1 X133.801 Y98.487 E.03016
G3 X134.093 Y100.12 I-4.212 J1.597 E.06341
G1 X134.087 Y110.186 E.38257
G3 X133.636 Y111.875 I-4.415 J-.275 E.06688
G1 X133.337 Y112.366 E.02185
G1 X132.822 Y112.96 E.02988
G1 X132.211 Y113.44 E.02953
G1 X131.513 Y113.801 E.02987
G1 X130.973 Y113.973 E.02154
G1 X130.617 Y114.024 E.01367
M204 P2500
G1 X130.633 Y114.484 F18000
M204 P500
;TYPE:External perimeter
G1 F1800
G1 X130.211 Y114.545 E.01621
G1 X119.786 Y114.545 E.39622
G1 X119.139 Y114.467 E.02477
G1 X118.512 Y114.299 E.02467
G1 X117.915 Y114.044 E.02467
G1 X117.361 Y113.706 E.02466
G1 X116.861 Y113.293 E.02465
G1 X116.426 Y112.814 E.02459
G1 X115.955 Y112.082 E.03308
G1 X115.702 Y111.49 E.02447
G3 X115.455 Y110.216 I8.541 J-2.313 E.04937
G1 X115.455 Y99.786 E.39641
G1 X115.533 Y99.139 E.02477
